X:93
T: HURRE HURRE HURRE SCHNURRE
N: F0202
O: Europa, Mitteleuropa, Deutschland
R: Spinnstuben - Lied
M: 2/4
L: 1/16
K: G
 | G2D2G2D2 | GABAG2z2 |
A2D2A2D2 | ABcBA2z2 |
d2A2d2A2 | defed4 |
g2d2g2d2 | dedcB4 |
d3gdBcA | G3AG2z2

@@@ Tune index: 5524
